X:1
T:426 - GratidÃ£o Na Luta
T:Letra: Lyman G. Cutler
T:Trad.: SalomÃ£o Luiz Ginsburg (1867-1927)
T:MÃºsica: Ira David Sankey (1840-1908)
M:12/8
L:1/8
K:Eb
V:1
B, E2F | "Eb"G6- G2B A2c | B6- B2G B2G | "Bb7"A6- A2A G2F | "Eb"G6 z2B, E2F | G6- G2B A2c | B6- B2G B2e | "Bb7"d6- d2B A2D | "Eb"E6- E3 z2 || B | "Eb"c2B G2B e3- e2B | c2B E2G "Bb"F3- F2G | A2G A2B "Bb7"d3- d2c | B2F G2A "Eb"G3 z2B | c2B G2B e3- e2e | e2G "Ab"A2B c3- c2(c/d/) | "Eb"e2B d2c (B2G) E2c | "Eb/Bb"B2G "Bb7"G2F "Eb"HE2 |]
w: 1.~Com gra-ti-dÃ£o_ e com fer-vor_ Can-te-mos jÃ¡_ ao bom Se-nhor, Pois seu po-der_ nos li-ber-tou_ E seu a-mor_ nos re-ve-lou._ A-cei-ta-nos, Se-nhor,_ que-ri-do Sal-va-dor!_ A-qui pre-sen-te sÃª,_ di-ri-gea tu-a grei, E fa-ze pros-pe-rar_ o nos-so tra-ba-lhar:_ Fa_zer o mun-do to_do teu no-me co-nhe-cer! 
w: 2.~Vem con-ser-var_nos emu-ni-Ã£o,_ Een-cher-nos vem_ o co-ra-Ã§Ã£o Do teu a-mor_ tÃ£o sin-gu-lar,_ Eem tu-a luz_ nos fa-zean-dar._
w: 3.~Pra bem lu-tar_ vem con-ce-der_ O teu fa-vor_ e teu po-der; A-ju-da-nos_ a pros-se-guir_ No bom que-rer_ de te ser-vir._
W: 
W: 1. Com gratidÃ£o e com fervor
W: Cantemos jÃ¡ ao bom Senhor,
W: Pois seu poder nos libertou
W: E seu amor nos revelou.
W: 
W:    (Estribilho)
W:    Aceita-nos, Senhor, querido Salvador!
W:    Aqui presente sÃª, dirige a tua grei,
W:    A faze prosperar o nosso trabalhar:
W:    Fazer o mundo todo teu nome conhecer!
W: 
W: 
W: 2. Vem conservar-nos em uniÃ£o,
W: E encher-nos vem o coraÃ§Ã£o
W: Do teu amor tÃ£o singular,
W: E em tua luz nos faze andar.
W: 
W: 3. Pra bem lutar vem conceder
W: O teu favor e teu poder;
W: Ajuda-nos a prosseguir
W: No bom querer de te servir.

